X:336
T:la Russe
M:4/4
K:G
G2 BB B2 dd | d2 g2 g2 fg | a2 g2 e2 c2 | e2 d2 dcBA | 
G2 BB B2 dd | d2 g2 g2 fg | e2 d2 c3 F | A2 G2 G4 :|| 
K:D
A2 d2 d2 cB | A2 a2 a2 f2 | g3 f g2 e2 | fgag f2 d2 | 
A2 d2 d2 cB | A2 a2 a2 f2 | g3 f g2 e2 | d4 d4 || 

